X: 9938
T: Devanny's Goat
R: reel
M: 4/4
K: Dmajor
|:DFF2 AFAB|d2fe dBAF|DFAF BFAF|E2ED EGFE|
DFF2 AFAB|d2fe dBAf|efdB AFF2|AFEG FDD2:|
|:faab afdf|a2fd edBd|ABde fdd2|edfd edBd|
ABde fdd2|edfd edBd|A2dB AFF2|AFEG FDD2:|

